X:2243
T:Polska från Västergötland
R:Polska
O:Västergötland
B:E L Lindblads notbok
B:http://www.smus.se/earkiv/fmk/browselarge.php?lang=sw&katalogid=M+177&bildnr=00098
B:Jämför [[http://www.smus.se/earkiv/fmk/browselarge.php?lang=sw&katalogid=Ds+1%2C+Vr+5&bildnr=00103|SMUS - katalog Ds1+Vr5 bild 103]] efter [[Personer/Nils Johan Andersson]] från [[Platser/Värmland]]
B:Jämför [[http://www.smus.se/earkiv/fmk/browselarge.php?lang=sw&katalogid=MMD+24&bildnr=00022|SMUS - katalog MMD24 bild 22]] - Polska från [[Platser/Österåker]].
B:Jämför [[http://www.smus.se/earkiv/fmk/browselarge.php?lang=sw&katalogid=MMD+2&bildnr=00023|SMUS - katalog MMD2 bild 23]] ur [[Notböcker/Gunno Magnus Almgrens notbok]]
B:Jämför [[http://www.smus.se/earkiv/fmk/browselarge.php?lang=sw&katalogid=M+175&bildnr=00028|SMUS - katalog M175 bild 28]] (längst upp t.h.) från notsamling från 1822.
B:Jämför [[http://www.smus.se/earkiv/fmk/browselarge.php?lang=sw&katalogid=M+15a&bildnr=00016|SMUS - katalog M15a bild 16]] nr 42 - "Uppå röda slussen".
B:Jämför [[http://www.smus.se/earkiv/fmk/browselarge.php?lang=sw&katalogid=MMD+67&bildnr=00032|SMUS - katalog MMD67 bild 32]] nr 79 ur [[Notböcker/Johan Erik Carlssons notbok]]
B:Jämför [[http://www.smus.se/earkiv/fmk/browselarge.php?lang=sw&katalogid=MMD+65&bildnr=00006|SMUS - katalog MMD65 bild 6]] nr 4, [[http://www.smus.se/earkiv/fmk/browselarge.php?lang=sw&katalogid=MMD+65&bildnr=00009|nr 9]], och [[http://www.smus.se/earkiv/fmk/browselarge.php?lang=sw&katalogid=MMD+65&bildnr=00022|nr 22]] (nr 30)
B:Jämför [[http://www.smus.se/earkiv/fmk/browselarge.php?lang=sw&katalogid=M+126b&bildnr=00068|SMUS - katalog M126b bild 68]] nr 482
B:Jämför [[http://www.smus.se/earkiv/fmk/browselarge.php?lang=sw&katalogid=MMD+16&bildnr=00009|SMUS - katalog MMD16 bild 9]] nr 18
B:Jämför [[http://www.smus.se/earkiv/fmk/browselarge.php?lang=sw&katalogid=Hs+11&bildnr=00068|SMUS - katalog Hs11 bild 68]] nr 131
B:Jämför [[http://www.smus.se/earkiv/fmk/browselarge.php?lang=sw&katalogid=M+147&bildnr=00013|SMUS - katalog M147 bild 13]] nr 39
B:Jämför [[http://www.samlingarna.sormlandsspel.se/wp-content/uploads/2013/04/1832.pdf|L-G Andersson/Högbergs notbok]] nr 13 sid 4
% B:Jämför [[http://www.smus.se/earkiv/fmk/browselarge.php?lang=sw&katalogid=M+50&bildnr=00023|SMUS - katalog M50 bild 23]] nr 40
% B:Jämför EÖ, nr 397
N:ur notbok daterad 1819
N:Se även [[Notböcker/75 polskor från Uppland och Södermanland]] samlade av Julius Bagge, nr 23.
S:efter E L Lindblad
M:3/4
L:1/8
Z:Nils L
K:G
d2 | g>f g>a b>"^?"g | g>f e>f g>e | d>B G>A B>c | e>d d2 :: 
d2 | B>d B>d B>d | c>e c>e c>e | d>f d>f d>f | a>g g2 :|
(:musicend:)

(:music:)
